frontend/public/svg/objects/paint-brush.svg

<svg width="95" height="155" viewBox="0 0 95 155" fill="none" xmlns="http://www.w3.org/2000/svg">
<g clip-path="url(#clip0)">
<path d="M65.3694 99.0891C65.2239 100.017 65.1332 100.953 65.0977 101.892C65.2617 108.397 65.6084 114.902 65.6182 121.408C65.6274 128.127 65.4245 134.854 65.0931 141.565C64.8819 143.571 64.3711 145.535 63.5776 147.39C63.1865 148.511 62.563 149.538 61.7479 150.402C60.9328 151.267 59.9444 151.949 58.8474 152.406C54.1471 154.404 48.8783 154.614 44.0338 152.996C40.1837 151.743 37.6673 148.879 37.3569 144.879C36.8673 138.637 36.7071 132.352 36.759 126.088C36.8148 119.361 37.2841 112.639 37.5532 105.913C37.6018 104.709 37.5603 103.503 37.5603 101.802C35.8322 101.802 34.5255 101.867 33.2286 101.789C28.203 101.475 23.1118 101.515 18.1722 100.673C11.0476 99.4619 6.60551 94.9962 5.27905 87.7831C4.69228 84.5906 4.34311 81.3509 3.98344 78.1211C3.36386 72.558 2.53951 66.9988 2.30257 61.4168C1.71843 47.6337 1.41716 33.8316 1.00564 20.0374C0.909158 16.7859 0.718824 13.5311 0.788396 10.2829C0.902305 8.97763 1.25072 7.70361 1.81689 6.52207C3.03899 3.56855 5.32566 2.80524 8.48137 2.72714C18.6828 2.47445 28.8711 1.73208 39.0719 1.40982C49.2727 1.08755 59.4794 1.04306 69.6836 0.877663C74.0601 0.806779 78.4359 0.694513 82.8104 0.68073C86.8016 0.670885 88.3945 1.76236 89.0561 5.75421C89.8726 10.3926 90.3675 15.082 90.5368 19.7887C90.8997 34.0489 91.6578 48.262 94.0279 62.3523C94.2005 63.3479 94.2937 64.3556 94.3061 65.366C94.3337 70.3993 94.3232 75.4334 94.314 80.4669C94.314 81.2545 94.2484 82.0368 94.2175 82.8218C93.9498 89.2946 90.6221 93.4919 84.6238 95.6854C79.5398 97.4929 74.2189 98.547 68.8304 98.8154C67.7271 98.8916 66.6317 98.9913 65.3694 99.0891ZM69.5228 19.1475C67.8163 22.8663 68.1051 26.1814 67.5479 29.3397C66.8876 33.0808 66.3475 36.8988 65.1194 40.4653C63.598 44.8864 59.232 46.1098 55.1948 43.747C54.1086 43.1413 53.1644 42.3103 52.4254 41.3101C51.6862 40.3097 51.1695 39.1632 50.9096 37.9469C50.2139 34.6712 49.8713 31.3179 49.4164 27.9942C49.1434 25.9996 49.0529 23.9728 48.6492 22.0084C48.5286 21.6553 48.3229 21.3372 48.0504 21.0823C47.7779 20.8274 47.4468 20.6436 47.0864 20.5468C46.608 20.4983 45.7738 21.3199 45.5467 21.925C44.8352 23.8074 44.3692 25.7817 43.745 27.7008C43.0887 29.7171 42.0655 31.3704 39.6659 31.6389C37.2099 31.9165 35.1332 31.1794 33.8396 29.0962C32.9719 27.6975 32.527 26.0338 31.9179 24.4783C31.5057 23.4236 31.1394 22.351 30.7528 21.2865L29.8339 21.4393C29.4999 23.2796 29.2889 25.1401 29.2025 27.0084C29.2557 30.7069 29.7822 34.4065 29.6942 38.0965C29.6053 41.329 29.2024 44.5454 28.4911 47.7C28.2981 48.8257 27.753 49.8611 26.9342 50.6574C26.1155 51.4537 25.0654 51.9699 23.9348 52.1316C21.2077 52.5419 19.2393 51.0395 18.1492 48.8906C16.8681 46.2877 15.886 43.548 15.2219 40.7239C14.4724 37.6851 14.2571 34.5189 13.6723 31.4334C13.3704 29.8405 13.2457 28.0566 11.5877 27.1246C8.13476 28.6217 7.74693 29.0798 7.88147 32.2729C8.10811 37.6549 8.38791 43.0325 8.72087 48.4057C9.02541 53.22 9.4389 58.0275 9.82023 62.8372C10.0499 65.731 10.3552 66.0081 13.3048 66.1531C13.5286 66.1636 13.7537 66.1647 13.9782 66.1615C24.5255 66.0177 35.0781 66.0304 45.6189 65.6884C58.4018 65.2769 71.1755 64.5725 83.9491 63.9758C84.7374 63.8839 85.5191 63.7394 86.2883 63.5429C85.5539 53.0139 84.8332 42.6803 84.104 32.2235C80.1004 32.6226 76.8259 31.7216 73.9636 29.4972C70.8499 27.0773 71.5391 22.947 69.5209 19.1481L69.5228 19.1475ZM9.79595 71.8761C10.1298 76.8668 10.9354 81.8143 12.2021 86.6528C13.2569 90.6624 15.7004 93.0758 19.725 93.8995C21.0342 94.1961 22.3637 94.3937 23.7024 94.4902C28.4077 94.7291 33.117 94.884 37.8249 95.0697C40.5605 95.176 42.2394 96.5793 42.7475 99.2447C43.2251 101.317 43.5271 103.427 43.6499 105.55C43.795 113.735 43.7116 121.925 43.8546 130.11C43.9255 134.142 44.1867 138.183 44.6081 142.191C44.7512 143.545 45.2986 145.276 46.2805 146.038C48.5528 147.797 51.3408 147.528 54.0252 146.811C56.3093 146.2 56.8764 144.296 56.9322 142.367C57.1258 135.652 57.3332 128.928 57.1947 122.218C57.0267 114.145 56.4813 106.084 56.1728 98.0154C56.1375 96.786 56.3111 95.5587 56.6861 94.3865C57.4304 92.0381 59.1054 91.1192 61.5916 91.2577C62.9114 91.3142 64.2337 91.2551 65.5434 91.0818C67.7684 90.8134 69.998 90.5226 72.1935 90.0822C75.8256 89.4397 79.4224 88.6153 82.9718 87.6111C84.3042 87.2009 85.9044 85.9151 86.3441 84.6628C87.9114 80.2089 88.0427 75.5397 87.664 70.4308C85.9621 70.4308 84.6448 70.3829 83.3322 70.438C70.4443 70.9808 57.5603 71.6437 44.6691 72.0598C36.268 72.3309 27.863 72.2961 19.4593 72.304C16.345 72.3053 13.2384 72.0369 9.79135 71.8767L9.79595 71.8761ZM37.92 27.7829L38.7431 27.7671C39.1369 26.7826 39.5779 25.8172 39.9054 24.8136C40.4607 23.1071 40.8099 21.3277 41.4807 19.6764C42.6556 16.8003 44.5838 15.8276 47.6725 16.3658C50.1627 16.799 52.0878 18.1177 53.0283 20.4798C53.5665 21.9488 53.933 23.475 54.1205 25.0282C54.6232 28.4667 54.8667 31.9485 55.4987 35.3615C55.8355 36.8774 56.5002 38.3012 57.4461 39.5327C58.2567 40.6347 59.5182 40.4777 60.1509 39.1683C60.766 37.9717 61.1944 36.6878 61.4209 35.3615C61.9984 31.2574 62.3903 27.1278 62.8917 23.0119C63.1936 20.5369 63.7568 18.1347 65.4803 16.2005C67.859 13.5305 71.0593 13.4733 73.2987 16.2359C74.2163 17.5004 74.9442 18.8917 75.4607 20.3662C75.9202 21.499 76.016 22.7718 76.3907 23.9447C77.4547 27.2697 79.845 27.9089 82.5347 25.7706C83.0815 25.3857 83.5179 24.8635 83.7988 24.2565C84.0797 23.6495 84.1959 22.9791 84.1355 22.313C83.9872 19.4008 83.9826 16.4794 83.7798 13.5718C83.6256 11.377 83.2547 9.19678 82.9561 6.81162C57.1271 4.87608 31.7978 7.15813 6.08965 8.10457C6.54384 13.2509 6.96195 17.9877 7.40235 23.0107C8.23262 22.7704 8.74121 22.6169 9.25316 22.4771C12.989 21.4525 15.6406 22.4659 17.4127 25.8539C18.1715 27.3529 18.7256 28.9469 19.0602 30.5933C19.834 34.2123 20.3636 37.8825 21.1145 41.5062C21.4545 43.147 22.0846 44.7297 22.5827 46.339C24.4539 43.8495 24.559 41.3552 24.3155 38.7712C23.9473 34.8647 23.495 30.9543 23.4038 27.0379C23.3277 23.7786 23.732 20.5001 25.9117 17.8019C28.6684 14.3889 32.6365 14.6588 34.6469 18.5653C35.6038 20.4247 35.9458 22.5952 36.6251 24.6036C36.9901 25.6872 37.481 26.7255 37.9155 27.7835L37.92 27.7829Z" fill="black"/>
</g>
<defs>
<clipPath id="clip0">
<rect width="94.5126" height="153.583" fill="white" transform="translate(0.392578 0.57959)"/>
</clipPath>
</defs>
</svg>

<svg xmlns="http://www.w3.org/2000/svg" width="95" height="155" fill="none" viewBox="0 0 95 155"><g clip-path="url(#a)"><path fill="#000" d="M65.37 99.09a24 24 0 0 0-.272 2.802c.164 6.505.51 13.01.52 19.516.01 6.719-.194 13.446-.525 20.157a20.2 20.2 0 0 1-1.515 5.825 8.44 8.44 0 0 1-4.73 5.016 20.92 20.92 0 0 1-14.814.59c-3.85-1.253-6.367-4.117-6.677-8.117-.49-6.242-.65-12.527-.598-18.791.056-6.727.525-13.449.794-20.175.049-1.204.007-2.41.007-4.111-1.728 0-3.035.065-4.331-.013-5.026-.314-10.117-.274-15.057-1.116-7.124-1.211-11.566-5.677-12.893-12.89-.587-3.192-.936-6.432-1.296-9.662C3.363 72.558 2.54 67 2.303 61.417c-.585-13.783-.886-27.585-1.297-41.38-.097-3.251-.287-6.506-.218-9.754a10.9 10.9 0 0 1 1.029-3.76C3.039 3.568 5.326 2.804 8.48 2.726c10.202-.253 20.39-.995 30.59-1.317 10.202-.322 20.408-.367 30.613-.532C74.06.807 78.436.695 82.81.68c3.992-.01 5.584 1.081 6.246 5.073a102 102 0 0 1 1.48 14.035c.364 14.26 1.122 28.473 3.492 42.563.172.996.266 2.004.278 3.014.028 5.033.017 10.067.008 15.1 0 .788-.066 1.57-.096 2.356-.268 6.473-3.596 10.67-9.594 12.863a55.4 55.4 0 0 1-15.794 3.13c-1.103.077-2.198.176-3.46.274m4.153-79.942c-1.707 3.718-1.418 7.033-1.975 10.192-.66 3.74-1.2 7.559-2.429 11.125-1.521 4.421-5.887 5.645-9.924 3.282a8.73 8.73 0 0 1-4.285-5.8c-.696-3.276-1.039-6.63-1.494-9.953-.273-1.994-.363-4.021-.767-5.986a2.28 2.28 0 0 0-1.563-1.461c-.478-.049-1.312.773-1.54 1.378-.71 1.882-1.177 3.857-1.801 5.776-.656 2.016-1.68 3.67-4.08 3.938-2.455.277-4.532-.46-5.825-2.543-.868-1.398-1.313-3.062-1.922-4.618-.412-1.054-.779-2.127-1.165-3.192l-.92.153a42 42 0 0 0-.63 5.57c.053 3.698.58 7.398.491 11.087a50 50 0 0 1-1.203 9.604 5.4 5.4 0 0 1-4.556 4.432c-2.727.41-4.696-1.093-5.786-3.241a38.4 38.4 0 0 1-2.927-8.167c-.75-3.039-.965-6.205-1.55-9.29-.302-1.594-.426-3.377-2.084-4.31-3.453 1.498-3.841 1.956-3.707 5.149q.34 8.073.84 16.133c.304 4.814.718 9.622 1.1 14.431.229 2.894.534 3.171 3.484 3.316q.336.015.673.008c10.548-.143 21.1-.13 31.64-.473 12.784-.411 25.557-1.115 38.331-1.712q1.183-.139 2.34-.433l-2.185-31.32c-4.004.4-7.278-.501-10.14-2.726-3.114-2.42-2.425-6.55-4.443-10.349zM9.796 71.876a79 79 0 0 0 2.406 14.777c1.055 4.01 3.498 6.423 7.523 7.246 1.31.297 2.639.495 3.977.591 4.706.24 9.415.394 14.123.58 2.735.106 4.414 1.51 4.922 4.175a38 38 0 0 1 .903 6.305c.145 8.185.062 16.375.205 24.56.07 4.032.332 8.073.753 12.081.143 1.354.69 3.085 1.673 3.847 2.272 1.759 5.06 1.49 7.744.773 2.284-.611 2.851-2.515 2.907-4.444.194-6.715.401-13.439.263-20.149-.168-8.073-.714-16.134-1.022-24.203a10.9 10.9 0 0 1 .513-3.629c.744-2.348 2.42-3.267 4.906-3.128 1.32.056 2.642-.003 3.951-.176 2.225-.269 4.455-.56 6.65-1a110 110 0 0 0 10.779-2.47c1.332-.411 2.932-1.697 3.372-2.95 1.567-4.453 1.699-9.122 1.32-14.231-1.702 0-3.02-.048-4.332.007-12.888.543-25.772 1.206-38.663 1.622-8.401.27-16.806.236-25.21.244-3.114.001-6.22-.267-9.668-.427zM37.92 27.783l.823-.016c.394-.984.835-1.95 1.162-2.953.556-1.707.905-3.486 1.576-5.138 1.175-2.876 3.103-3.848 6.191-3.31 2.49.433 4.416 1.752 5.356 4.114a20.3 20.3 0 0 1 1.093 4.548c.502 3.439.746 6.92 1.378 10.334a10.6 10.6 0 0 0 1.947 4.17c.81 1.103 2.072.946 2.705-.364a13.2 13.2 0 0 0 1.27-3.806c.577-4.105.97-8.234 1.47-12.35.303-2.475.866-4.877 2.59-6.811 2.378-2.67 5.578-2.728 7.818.035a16 16 0 0 1 2.162 4.13c.46 1.133.555 2.406.93 3.579 1.064 3.325 3.454 3.964 6.144 1.826a3.81 3.81 0 0 0 1.6-3.458c-.148-2.912-.152-5.834-.355-8.741-.154-2.195-.525-4.375-.824-6.76-25.829-1.936-51.158.346-76.866 1.293.454 5.146.872 9.883 1.312 14.906.83-.24 1.34-.394 1.851-.534 3.736-1.024 6.388-.011 8.16 3.377a18.8 18.8 0 0 1 1.647 4.74c.774 3.618 1.304 7.288 2.055 10.912.34 1.641.97 3.224 1.468 4.833 1.87-2.49 1.976-4.984 1.733-7.568-.369-3.906-.821-7.817-.912-11.733-.076-3.26.328-6.538 2.508-9.236 2.756-3.413 6.724-3.143 8.735.763.957 1.86 1.299 4.03 1.978 6.039.365 1.083.856 2.122 1.29 3.18z"/></g><defs><clipPath id="a"><path fill="#fff" d="M.393.58h94.513v153.583H.393z"/></clipPath></defs></svg>
